lib/functional/office&editing/file-pdf.svg

<svg xmlns="http://www.w3.org/2000/svg" fill="none" stroke="currentColor" aria-hidden="true" viewBox="0 0 32 32"><g id="Icon-FilePdf"><g clip-path="url(#clip0_12_1490)"><g id="size=md (32px)"><g id="FilePdf"><path id="Vector" stroke-linecap="round" stroke-linejoin="round" stroke-width="2" d="M6 16V5C6 4.73478 6.10536 4.48043 6.29289 4.29289C6.48043 4.10536 6.73478 4 7 4H19L26 11V16"/><path id="Vector_2" stroke-linecap="round" stroke-linejoin="round" stroke-width="2" d="M19 4V11H26"/><path id="Vector_3" stroke-linecap="round" stroke-linejoin="round" stroke-width="2" d="M6 25H8C8.53043 25 9.03914 24.7893 9.41421 24.4142C9.78929 24.0391 10 23.5304 10 23C10 22.4696 9.78929 21.9609 9.41421 21.5858C9.03914 21.2107 8.53043 21 8 21H6V27"/><path id="Vector_4" stroke-linecap="round" stroke-linejoin="round" stroke-width="2" d="M27 21H23.5V27"/><path id="Vector_5" stroke-linecap="round" stroke-linejoin="round" stroke-width="2" d="M26.5 24.5H23.5"/><path id="Vector_6" stroke-linecap="round" stroke-linejoin="round" stroke-width="2" d="M16 27C16.7956 27 17.5587 26.6839 18.1213 26.1213C18.6839 25.5587 19 24.7956 19 24C19 23.2044 18.6839 22.4413 18.1213 21.8787C17.5587 21.3161 16.7956 21 16 21H14.25V27H16Z"/></g></g></g></g><defs><clipPath id="clip0_12_1490"><rect width="32" height="32" fill="white" rx="5"/></clipPath></defs></svg>

<svg xmlns="http://www.w3.org/2000/svg" fill="none" stroke="currentColor" aria-hidden="true" viewBox="0 0 32 32"><g stroke="#101828" stroke-linecap="round" stroke-linejoin="round" stroke-width="2" clip-path="url(#a)"><path d="M6 16V5a1 1 0 0 1 1-1h12l7 7v5"/><path d="M19 4v7h7M6 25h2a2 2 0 1 0 0-4H6v6m21-6h-3.5v6m3-2.5h-3M16 27a3 3 0 0 0 0-6h-1.75v6H16Z"/></g><defs><clipPath id="a"><rect width="32" height="32" fill="#fff" rx="5"/></clipPath></defs></svg>
